X:982
T:Mill Stream, The
T:Millstream, The
R:reel
H:Related to "Colonel McRory's" #242, and "Lough Allen" in O'Neill's
D:Beoga: A Lovely Madness
Z:id:hn-reel-982
M:C|
L:1/8
K:G
d2BG ABcA | dGBG c2Bc | d2BG ABcA | BcBA G2Bc :|
|: d3e fdcA | dggf g2ag | fd~d2 ec~c2 | dBcA GABc :|

